ibt/assets/img/icons/list-check-ico.svg

<svg width="18" height="19" viewBox="0 0 18 19" fill="none" xmlns="http://www.w3.org/2000/svg">
<path fill-rule="evenodd" clip-rule="evenodd" d="M9 18.5C13.9706 18.5 18 14.4706 18 9.5C18 4.52944 13.9706 0.5 9 0.5C4.02944 0.5 0 4.52944 0 9.5C0 14.4706 4.02944 18.5 9 18.5ZM13.7682 7.14018C14.1218 6.71591 14.0645 6.08534 13.6402 5.73178C13.2159 5.37821 12.5853 5.43554 12.2318 5.85982L8.63383 10.1774C8.28711 10.5934 8.09219 10.8238 7.93658 10.9653L7.93063 10.9707L7.92422 10.9659C7.75643 10.839 7.54146 10.6272 7.1585 10.2443L5.70711 8.79289C5.31658 8.40237 4.68342 8.40237 4.29289 8.79289C3.90237 9.18342 3.90237 9.81658 4.29289 10.2071L5.74428 11.6585L5.78511 11.6993L5.78512 11.6993C6.11161 12.026 6.4257 12.3402 6.71794 12.5611C7.0453 12.8087 7.47402 13.0415 8.02343 13.0165C8.57284 12.9916 8.97872 12.721 9.28233 12.4448C9.55337 12.1983 9.83772 11.8569 10.1333 11.5021L10.1333 11.5021L10.1703 11.4577L13.7682 7.14018Z" fill="#0C2047"/>
</svg>

<svg width="18" height="19" fill="none" xmlns="http://www.w3.org/2000/svg"><path fill-rule="evenodd" clip-rule="evenodd" d="M9 18.5a9 9 0 100-18 9 9 0 000 18zm4.768-11.36a1 1 0 10-1.536-1.28l-3.598 4.317c-.347.416-.542.647-.697.788l-.006.006-.007-.005c-.168-.127-.383-.339-.766-.722l-1.45-1.451a1 1 0 00-1.415 1.414l1.451 1.451.041.041c.327.327.64.641.933.862.327.248.756.48 1.305.456.55-.025.956-.296 1.26-.572.27-.247.555-.588.85-.943l.037-.044 3.598-4.318z" fill="#0C2047"/></svg>
